!!!COM: Wacław z Szamotuł
!!!CDT: ~1524–~1560
!!!OTL: Kryste dniu naszej światłości
!!!TXO: Polish
!!!ODT:
!!!voices:	1
!!!pag:
!!!EFL:
!!!YEM: Creative Commons CC/BY/NC/SA 4.0
!!!ENC: Marcin Konik
!!!END: 2015-05-05
!!!EED: Marcin Konik
!!!EEV:
!!!ONB: Encoded in vim by Marcin Konik
!!!CharacterEncoding: utf-8
!!!RDF**kern: l=long note in original notation
!!!RDF**kern: i=editorial accidental
!!!RDF**kern: > = above
!!!RDF**kern: < = below
!!muse2ps: z14jc180F
!!title: @{CDT}, @{OTL}, ed. @{ENC}
**kern	**kern	**kern	**kern
*part4	*part3	*part2	*part1
*staff4	*staff3	*staff2	*staff1
*clefF4	*clefG2	*clefG2	*clefG2
*k[b-]	*k[b-]	*k[b-]	*k[b-]
*M4/4	*M4/4	*M4/4	*M4/4
=1-	=1-	=1-	=1-
4.d	4.d	2a	2dd
8c	8e	.	.
4B-	4f	2b-	2dd
4G	[4g	.	.
=2	=2	=2	=2
2c	4g]	2cc	2ee
.	2a	.	.
2d	.	2a	2ff
.	4f	.	.
=3	=3	=3	=3
2G	2b-	4.g	2dd
.	.	8f	.
4A	4.a	4e	2cc
4F	.	4f	.
.	8g	.	.
=4	=4	=4	=4
2B-	8fL	4d	2dd
.	8eJ	.	.
.	4d	4dd	.
4A	2a	2cc	4ee
4F	.	.	4ff
=5	=5	=5	=5
2G	4.g	2b-	4ee
.	.	.	2dd
.	8f	.	.
2A	2e	2a	.
.	.	.	4cc#
=6	=6	=6	=6
1d	4d	4a	4dd
.	4a	4dd	4ff
.	4a	4dd	4ff
.	4a	4dd	4ff
=7	=7	=7	=7
4r	1a	4cc	4ee
4f	.	4a	2cc
4f	.	8fL	.
.	.	8g	.
4f	.	8a	4dd
.	.	8bJ	.
=8	=8	=8	=8
4e	4g	8ccL	8eeL
.	.	8ddJ	8ff
4c	4e	4ee	8gg
.	.	.	8eeJ
4d	4a	4dd	4ff
4e	4g	[4cc	[4ee
=9	=9	=9	=9
2f	4.a	8ccL]	4ee]
.	.	8bJ	.
.	.	2a	4dd
.	8b	.	.
2e	4cc	.	[2ee
.	[4b	4g#	.
=10	=10	=10	=10
2A	4b]	2cc	1ee]
.	2a	.	.
4r	.	2b	.
4e	4g#	.	.
=11	=11	=11	=11
4c	2a	2cc	4r
4A	.	.	4ee
2e	4r	4b	4gg
.	4e	4g	4gg
=12	=12	=12	=12
1c	4g	1cc	2gg
.	4g	.	.
.	2g	.	4.ee
.	.	.	8ff
=13	=13	=13	=13
4r	4e	4b	4gg
2F	2a	2cc	2ff
4G	8gL	4b-	8eeL
.	8fJ	.	8ddJ
=14	=14	=14	=14
4A	4e	4a	4cc#
4B-	4d	4g	2dd
2A	2e	4a	.
.	.	[4a	4cc#
=15	=15	=15	=15
2d	2d	4a]	2dd
.	.	2b	.
2e	2r	.	2r
.	.	[4cc	.
=16	=16	=16	=16
2f	2a	8ccL]	2r
.	.	8b	.
.	.	8a	.
.	.	8gJ	.
2d	2b	2f	2dd
=17	=17	=17	=17
2c	2cc	4g	2ee
.	.	2a	.
2d	2a	.	2ff
.	.	4f	.
=18	=18	=18	=18
4G	4g	4g	2dd
4d	[4a	4f	.
4f	8aL]	4a	2cc
.	8bJ	.	.
4e	[4cc	[4g	.
=19	=19	=19	=19
2d	4cc]	4g]	2dd
.	4b	4f	.
4c	4cc	4e	4ee
[4F	[4a	[4cc	[4ff
=20	=20	=20	=20
4F]	4a]	4cc]	4ff]
4G	8gL	4b-	8eeL
.	8fJ	.	8ddJ
4A	8eL	4a	4cc
.	8fJ	.	.
4G	[4g	[4b-	[4ee
=21	=21	=21	=21
2B-	8gL]	4b-]	8eeL]
.	8fJ	.	8ddJ
.	4d	4g	2dd
2A	2e	2a	.
.	.	.	4cc#
=22	=22	=22	=22
1D	1d	1a	1dd
==	==	==	==
*-	*-	*-	*-
